images/twitter-logo.svg

<svg xmlns="http://www.w3.org/2000/svg" width="24" height="20" fill="none"><path fill="#837D88" d="M24 2.309a9.83 9.83 0 0 1-2.828.775A4.932 4.932 0 0 0 23.337.36a9.864 9.864 0 0 1-3.127 1.195A4.916 4.916 0 0 0 16.616 0c-3.179 0-5.515 2.966-4.797 6.045A13.978 13.978 0 0 1 1.671.901a4.93 4.93 0 0 0 1.523 6.574 4.903 4.903 0 0 1-2.229-.616c-.054 2.281 1.581 4.415 3.949 4.89a4.935 4.935 0 0 1-2.224.084 4.928 4.928 0 0 0 4.6 3.419A9.9 9.9 0 0 1 0 17.292a13.94 13.94 0 0 0 7.548 2.212c9.142 0 14.307-7.721 13.995-14.646A10.025 10.025 0 0 0 24 2.309Z"/></svg>

<svg width="24" height="20" viewBox="0 0 24 20" fill="none" xmlns="http://www.w3.org/2000/svg">
<path id="Path" d="M24 2.309C23.117 2.701 22.168 2.965 21.172 3.084C22.189 2.475 22.97 1.51 23.337 0.36C22.386 0.924 21.332 1.334 20.21 1.555C19.313 0.598 18.032 0 16.616 0C13.437 0 11.101 2.966 11.819 6.045C7.728 5.84 4.1 3.88 1.671 0.901C0.381 3.114 1.002 6.009 3.194 7.475C2.388 7.449 1.628 7.228 0.965 6.859C0.911 9.14 2.546 11.274 4.914 11.749C4.221 11.937 3.462 11.981 2.69 11.833C3.316 13.789 5.134 15.212 7.29 15.252C5.22 16.875 2.612 17.6 0 17.292C2.179 18.689 4.768 19.504 7.548 19.504C16.69 19.504 21.855 11.783 21.543 4.858C22.505 4.163 23.34 3.296 24 2.309Z" fill="#837D88"/>
</svg>
